assets/images/ico_fb2.svg

<svg width="13" height="27" viewBox="0 0 13 27" fill="none" xmlns="http://www.w3.org/2000/svg">
<path d="M0.702479 14.3417H3.45905V26.4934C3.45905 26.7333 3.6406 26.9277 3.86465 26.9277H8.53851C8.76257 26.9277 8.94412 26.7333 8.94412 26.4934V14.399H12.113C12.3191 14.399 12.4924 14.2334 12.516 14.0142L12.9972 9.54058C13.0105 9.4175 12.974 9.29424 12.8971 9.2019C12.8202 9.10948 12.71 9.05658 12.5944 9.05658H8.94428V6.25227C8.94428 5.40692 9.36935 4.97824 10.2078 4.97824C10.3273 4.97824 12.5944 4.97824 12.5944 4.97824C12.8185 4.97824 13 4.78376 13 4.54392V0.437532C13 0.197615 12.8185 0.00321396 12.5944 0.00321396H9.30535C9.28215 0.00199786 9.23064 0 9.15471 0C8.58402 0 6.60037 0.119959 5.03344 1.66353C3.29729 3.37404 3.53863 5.42212 3.5963 5.77722V9.05649H0.702479C0.478424 9.05649 0.296875 9.25089 0.296875 9.49081V13.9073C0.296875 14.1472 0.478424 14.3417 0.702479 14.3417Z" fill="white"/>
</svg>

<svg width="13" height="27" fill="none" xmlns="http://www.w3.org/2000/svg"><path d="M.702 14.342H3.46v12.151c0 .24.182.435.406.435H8.54c.224 0 .405-.195.405-.435V14.4h3.169c.206 0 .38-.166.403-.385l.481-4.473a.454.454 0 00-.1-.34.394.394 0 00-.303-.144h-3.65V6.252c0-.845.425-1.274 1.264-1.274h2.386c.225 0 .406-.194.406-.434V.438c0-.24-.181-.435-.406-.435h-3.29A3.011 3.011 0 009.155 0C8.584 0 6.6.12 5.033 1.664 3.297 3.374 3.54 5.422 3.596 5.777v3.28H.702c-.224 0-.405.194-.405.434v4.416c0 .24.181.435.405.435z" fill="#fff"/></svg>
